X: 5
T:Brendan Tonro's
R:Jig
Z:Added by Alf Warnock
M:6/8
L:1/8
K:D
D2E|:~F3 AFE|FDB, A,B,D|~F3 ~G3|BdB AFE|
~F3 AFE|FDB, A,B,D|FEF GFG|BAF D2:|
e|:fed dcd|edc Bdg|fef dcd|ABF A2e|
fed dcd|edc Bdg|fef gec|dAF D3:|

